X: 2
T: Baidin Fheilimi
R: slide
M: 12/8
L: 1/8
K: Dmaj
A4 D2|F3 E D2|A2 B2 c2|d4 B2|\A4 D2|F3 E D2|G2 E2 E2 |E6|\A4 D2|F3 E D2|A2 B2 c2|d4 B2|\d4 B2|A3 B G2|F2 D2 D2 |D6||\d4 e2|f4 d2|g4 e2|f4 d2|\B4 c2|d4 B2|A3 B G2|F3 E D2|\d4 e2|f4 d2|g4 e2|f4 d2|\B4 d2|A3 B G2|F2 D2 D2|D6||


Tune 3256	Setting 26455

